!!!!SEGMENT: pl-wn--mus-iii-118-771--002_badarzewska-tekla--vision.krn
!!!cenid: 18xx:3541
!!!COM: Bądarzewska, Tekla
!!!COM-rismID:
!!!CDT: ~1830-1861/09/29
!!!CNT: Polish
!!!OTL: Vision
!!!PDT:
!!!AGN:
!!!SMS-siglum: PL-Wn
!!!SMS-shelfmark: Mus.III.118.771
!!!SMS-shelfwork: 002 W
!!!SMS-variant:
!!!SMS-altvar:
!!!NIFC-rismSourceID:
!!!NIFC-islandoraID:
!!!URL-pdf-islandora:
!!!URL-scan: https://polona.pl/item/pieces-favorites,MTk4NjI5Mw/4/#info:metadata @EN{Scan on Polona} @PL{Skany w portalu Polona}
!!!ONB-nifc:
!!!OMD: Andantino.
!!!OMD-mod: Andantino
!!!AIN: 1 piano
!!!key: a
**kern	**kern	**dynam
*part1	*part1	*part1
*staff2	*staff1	*
*I"PIANO.	*I"PIANO.	*
*mI"Pianoforte	*mI"Pianoforte	*
*Ipiano	*Ipiano	*
*ICklav	*ICklav	*
*clefF4	*clefG2	*
*kcancel	*kcancel	*
*k[]	*k[]	*
*a:	*a:	*
*M6/8	*M6/8	*
=1	=1	=1
*^	*	*
!	!LO:N:vis=2	!	!
2.AA/	8AA\L	4r	.
.	8c 8A 8E\	.	.
.	8e 8c 8A\	8r	.
.	.	(<<16qqgg#X/LL	.
.	.	16qqaa/	.
.	.	16qqbb/JJ	.
.	8a> 8e> 8c>\	4.aa^>/)	.
.	8e 8c 8A\	.	.
.	8cJ 8A 8E\	.	.
=2	=2	=2	=2
!	!LO:N:vis=2	!	!
2.FF/	8FF\L	4r	.
.	8d 8A 8F\	.	.
.	8f 8d 8A\	8r	.
.	.	(<<16qqee/LL	.
.	.	16qqff/	.
.	.	16qqgg/JJ	.
.	8a> 8f> 8d>\	4.ff^>/)	.
.	8f 8d 8A\	.	.
.	8dJ 8A 8F\	.	.
=3	=3	=3	=3
!	!LO:N:vis=2	!	!
2.EE/	8EE\L	4r	.
.	8c 8A 8E\	.	.
.	8e 8c 8A\	8r	.
.	.	(<<16qqdd#X/LL	.
.	.	16qqee/	.
.	.	16qqff/JJ	.
.	8a> 8e> 8c>\	4.ee^>/)	.
.	8e 8c 8A\	.	.
.	8cJ 8A 8E\	.	.
=4	=4	=4	=4
4EE/	8EE\L	4r	.
.	8dJ 8B 8G#X 8E\	.	.
*v	*v	*	*
!	!LO:SIC:s=8e	!
8r	[[<8e;/	.
!	!LO:SIC:s=[4.e	!
4r	4.e/	.
8r;	.	.
!!LO:LB:g=original
=5	=5	=5
*	*cue	*
!LO:MO:mod=!LO&colon;TX&colon;a&colon;i&colon;t=legg. e grazioso	!	!
!LO:TX:a:t=legg. e grazioso	!LO:SIC:s=(32eLLL]	!
1ryy	(>32e\LLL]]	<
.	32f\	.
.	32f#X\	.
.	32g\	.
.	32g#X\	.
.	32a\	.
.	32a#X\	.
.	32b\	.
.	32cc\	.
.	32cc#X\	.
.	32dd\	.
.	32dd#X\	.
.	32ee\	.
.	32ff\	.
.	32ff#X\	.
.	32gg\	.
.	32gg#X\JJJ	.
.	32aa\LLL	.
.	32aa#X\	.
.	32bb\	.
.	32ccc\	.
.	32ccc#X\	.
.	32ddd\	.
.	32ddd#X\	.
.	32eee\	.
.	32fff\	[
.	32fff#X\	.
.	32ggg\	>
.	32ggg#X\	.
.	32aaa\	.
.	32aaa#X\	.
.	32bbb\	.
*	*8va	*
!LO:N:vis=1	!	!
8.r;	32ccccny\	.
.	32cccc#X\	.
.	32ddddny\	.
.	32dddd#X\	.
.	32eeee\	.
.	32gggg#X\	.
32ryy	32aaaany\JJJ)	.
1ryy	4..aaaa\	.
.	16eeee\	.
.	(>[>4eeee;\	]
.	32eeee\LLL]	<
!	!LO:MO:mod=!null:null	!
!	!LO:N:vis=32.	!
.	32dddd#\	.
.	32bbb\	.
*	*X8va	*
.	32ggg#X\	.
.	32eee\	.
.	32ddd#\	.
.	32bb\	.
.	32gg#X\	.
2ryy	32ee\	.
.	32dd#\	.
.	32b\	.
.	32g#X\JJJ)	[
.	4.e/	>
!	!LO:SIC:v:s=(32fLLL	!
8ryy	(<32f#/LLL	.
.	32e/	.
.	32d#X/	.
.	32e/JJJ)	.
!	!LO:SIC:v:s=(4cc (4e	!
2ryy	(>4cc# (<4e/	.
.	4b) 4dn/)	]]
*	*Xcue	*
!!LO:LB:g=original
=6||	=6||	=6||
!!!OMD: Andante Cantabile.
!!!OMD-mod: Andante Cantabile
*M9/8	*M9/8	*
!	!LO:MO:mod=!null:null	!
!	!LO:N:vis=4	!
8AA\L	8a 8c/	pp
8c 8A 8E\	8r	.
8eJ 8c 8A\	8r	.
8.a>L 8.e> 8.c>\	4.rgg	.
16r	.	.
8eJ 8c 8A\	.	.
8.a>L 8.e> 8.c>\	4.rgg	.
16r	.	.
8eJ 8c 8A\	.	.
=7	=7	=7
8AA\L	(<8e/L	p
8c 8A 8E\	8a/	<
8eJ 8c 8A\	8b/J)	.
8.a>L 8.e> 8.c>\	4.ccTT/	.
16r	.	.
8eJ 8c 8A\	.	[
.	(<32qqb/LLL	.
.	32qqcc/JJJ)	.
8.a>L 8.f> 8.d>\	(>8dd/L	>
.	8ee/	.
16r	.	.
8fJ 8d 8A\	8ff/J)	.
=8	=8	=8
8AA\L	[>4.ee\	]
8c 8A 8E\	.	.
8eJ 8c 8A\	.	.
8.a>L 8.e> 8.c>\	(<8ee/L]	<
.	8a/	.
16r	.	.
8eJ 8c 8A\	8b/J)	.
!	!LO:TUP:a:problem=klamra łukowa	!
8.a>L 8.e> 8.c>\	(>24cc/LL	[
.	.	>
.	24dd/	.
.	24cc/J	.
.	8b/	.
16r	.	.
8eJ 8c 8A\	8a/J)	]]
=9	=9	=9
.	(<32qqe/LLL	.
.	32qqa/	.
.	32qqcc/JJJ)	.
8EE\L	[>4.ee^<\	.
8c 8A 8E\	.	.
8eJ 8c 8A\	.	.
!LO:MO:mod=!null:null	!	!
!LO:N:vis=8	!	!
8.a>L 8.e> 8.c>\	8ee/L]	.
.	(<8a/	.
16r	.	.
8eJ 8c 8A\	8b/J)	.
!	!LO:SIC:s=(24ccLL	!
!	!LO:TUP:a:problem=klamra łukowa	!
8.EE\L	(>(<24cc/LL	>
.	24dd/	.
.	24cc/J	.
.	8b/	.
16r	.	.
!	!LO:SIC:s=8eJ)	!
8dJ 8B 8G#X 8E\	8e/J))	]]
=10	=10	=10
8.AA^\L	8a\L	.
.	(>8bb 8ff 8dd^<\	.
16r	.	.
8A\J	8aaJ) 8ee\	.
8.AA^\L	(>8ffL 8b 8g#X^<\	.
.	8ee) 8cc 8a\	.
16r	.	.
8A\J	(>8ddJ 8b 8f^<\	.
8.AA^\L	8ccL) 8a\	.
.	(>8b 8f 8d^<\	.
16r	.	.
8A\J	8aJ) 8e\	.
!!LO:LB:g=original
=11	=11	=11
8AAL 8AAA\	(<8e/L	p
8c 8A 8E\	8a/	<
8eJ 8c 8A\	8b/J)	.
8.a>L 8.e> 8.c>\	4.ccT/	.
16r	.	.
8eJ 8c 8A\	.	[
.	(<16qqb/LL	.
.	16qqcc/JJ)	.
8.a>L 8.f> 8.d>\	(>8dd/L	.
.	.	>
.	8ee/	.
16r	.	.
8fJ 8d 8A\	8ff/J)	.
=12	=12	=12
8AA\L	[>4.ee\	]
8c 8A 8E\	.	.
8eJ 8c 8A\	.	.
8.a>L 8.e> 8.c>\	8ee/L]	<
.	(<8a/	.
16r	.	.
8eJ 8c 8A\	8b/J)	.
.	.	[
!	!LO:TUP:a:problem=klamra łukowa	!
8.a>L 8.e> 8.c>\	(>24cc/LL	.
.	24dd/	>
.	24cc/J	.
.	8b/	.
16r	.	.
8eJ 8c 8A\	8a/J)	.
=13	=13	=13
.	(<32qqe/LLL	.
.	32qqa/	.
.	32qqcc/JJJ)	.
8EE\L	[>4.ee^<\	]
8c 8A 8E\	.	.
8eJ 8c 8A\	.	.
8.a>L 8.e> 8.c>\	8ee/L]	.
.	(<8a/	.
16r	.	.
8eJ 8c 8A\	8b/J)	.
!	!LO:TUP:b:problem=klamra łukowa	!
8.EE\L	(<24cc/LL	>
.	24dd/	.
.	24cc/J	.
.	8b/	.
16r	.	.
8dJ 8B 8G#X 8E\	8e/J)	]]
=14	=14	=14
8AA\L	[>4.a^<\	.
8c 8A 8E\	.	.
8eJ 8c 8A\	.	.
8.e>L 8.c>\	8a/L]	.
.	(<8a/	.
16r	.	.
8eJ 8c 8A\	8b/J)	.
!	!LO:TUP:a:problem=klamra łukowa	!
8.a>L 8.e> 8.c>\	(>24cc/LL	.
.	24dd/	.
.	24cc/J	.
.	8b/	.
16r	.	.
8eJ 8c 8A\	8a/J)	.
=15	=15	=15
8D\L	[>4.dd^<\	.
8d 8A 8F\	.	.
8fJ 8d 8A\	.	.
8.a>L 8.f> 8.d>\	8dd/L]	<
.	(<8a/	.
16r	.	.
8fJ 8d 8A\	8b/J)	.
!	!LO:TUP:a:problem=klamra łukowa	!
8.a>L 8.f> 8.d>\	(>24cc/LL	[
.	24dd/	>
.	24cc/J	.
.	8b/	.
16r	.	.
8fJ 8d 8A\	8a/J)	]]
!!LO:PB:g=original
=16	=16	=16
8AA\L	[>4.cc^<\	.
8c 8A 8E\	.	.
8eJ 8c 8A\	.	.
8.a>L 8.e> 8.c>\	8cc/L]	<
.	(<8a/	.
16r	.	.
8eJ 8c 8A\	8b/J)	.
!	!LO:TUP:a:problem=klamra łukowa	!
8.a>L 8.e> 8.c>\	(>24cc/LL	[
.	.	>
.	24dd/	.
.	24cc/J	.
.	8b/	.
16r	.	.
8eJ 8c 8A\	8a/J)	.
=17	=17	=17
.	(<16qqe/LL	.
.	16qqa/	.
.	16qqcc/JJ	.
8EE\L	[>4.ee\)	] mf
8c 8A 8E\	.	.
8eJ 8c 8A\	.	.
8.a>L 8.e> 8.c>\	8ee/L]	.
.	.	>
.	(<8a/	.
16r	.	.
8eJ 8c 8A\	8b/J)	.
!	!LO:TUP:b:problem=klamra łukowa	!
8.EE\L	(<24cc/LL	.
.	24dd/	.
.	24cc/J	.
.	8b/	.
16r	.	.
8dJ 8B 8G#X 8E\	8e/J)	]]
=18||	=18||	=18||
!!!OMD: Allegro moderato.
!!!OMD-mod: Allegro moderato
*k[f#c#g#]	*k[f#c#g#]	*
*M3/8	*M3/8	*
*	*Xtuplet	*
*A:	*A:	*
!LO:TX:a:i:t= :mod=legg.	!	!
8AA\L	(>24e/LL	mf
!	!LO:TX:b:t=legg:mod=	!
.	24e/	.
.	24e/JJ	.
8c# 8A 8E\	24a/LL	.
.	24a/	.
.	24a/JJ	.
8eJ 8c# 8A\	24cc#\LL	.
.	24cc#\	.
.	24cc#\JJ	.
=19	=19	=19
8AA\L	24ee\LL)	.
.	24ee\	.
.	24ee\JJ	.
8c# 8A 8E\	24ee\LL	.
.	24ee\	.
.	24ee\JJ	.
8eJ 8c# 8A\	(>24dd#X\LL	.
.	24dd#\	.
.	24ee\JJ	.
=20	=20	=20
8AA\L	24ff#\LL)	>
.	24ff#\	.
.	24ff#\JJ	.
8d 8A 8F#\	24ee\LL	.
.	24ee\	.
.	24ee\JJ	.
!LO:SIC:s=8f#J 8d 8A	!	!
8f#J 8dn 8A\	24dd#X\LL	.
.	24dd#\	.
.	24dd#\JJ	]]
!!LO:LB:g=original
=21	=21	=21
8AA\L	24ee\LL	<
.	24ee\	.
.	24ee\JJ	.
8c# 8A 8E\	24ee\LL	.
.	24ee\	.
.	24ee\JJ	.
8c#J 8A 8E\	24ee\LL	.
.	24ee\	.
.	24ee\JJ	.
=22	=22	=22
8C#\L	(>24aa\LL	.
.	24aa\	.
.	24aa\JJ	[
8c# 8A 8E\	24ee\LL	.
.	24ee\	.
.	24ee\JJ	>
8eJ 8c# 8A\	24dd\LL)	.
.	24dd\	.
.	24cc#\JJ	.
=23	=23	=23
8D\L	24cc#\LL	.
.	24cc#\	.
.	24cc#\JJ	.
8d 8B 8F#\	24b\LL	]
.	24b\	.
.	24b\JJ	.
8f#J 8d 8B\	(>24ff#\LL	.
.	24ff#\	.
.	24ff#\JJ	.
=24	=24	=24
8E\L	24ff#\LL	.
.	24ff#\	.
.	24ff#\JJ	.
8e 8B 8G#\	24ee\LL)	.
.	24ee\	.
.	24ee\JJ	.
8dJ 8B 8G#\	24b\LL	.
.	24b\	.
.	24b#X\JJ	.
=25	=25	=25
8AA\L	(>24cc#\LL	.
.	24cc#\	.
.	24cc#\JJ	.
8c# 8A 8E\	24cc#\LL	.
.	24cc#\	.
.	24cc#\JJ	.
8c#J 8A 8E\	24cc#\LL	.
.	24cc#\	.
.	24cc#\JJ)	.
=26	=26	=26
8AA\L	(>24e/LL	.
.	24e/	.
.	24e/JJ	.
8c# 8A 8E\	24a/LL	.
.	24a/	.
.	24a/JJ	.
8eJ 8c# 8A\	24cc#\LL	.
.	24cc#\	.
.	24cc#\JJ	.
!!LO:LB:g=original
=27	=27	=27
8AA\L	24ee\LL	.
.	24ee\)	.
.	24ee\JJ	.
8c# 8A 8E\	24ee\LL	.
.	24ee\	.
.	24ee\JJ	.
8eJ 8c# 8A\	(>24dd#X\LL	.
.	24dd#\	.
.	24ee\JJ	.
=28	=28	=28
8AA\L	24ff#\LL)	.
.	24ff#\	.
.	24ff#\JJ	.
8d 8A 8F#\	24ee\LL	.
.	24ee\	.
.	24ee\JJ	.
8f#J 8dn 8A\	24dd#X\LL	.
.	24dd#\	.
.	24dd#\JJ	.
=29	=29	=29
8AA\L	24ee\LL	<
.	24ee\	.
.	24ee\JJ	.
8c# 8A 8E\	24ee\LL	.
.	24ee\	.
.	24ee\JJ	.
8c#J 8A 8E\	24ee\LL	.
.	24ee\	.
.	24ee\JJ	[[
=30	=30	=30
8C#\L	(>24aa\LL	>
.	24aa\	.
.	24aa\JJ	.
8c# 8A 8E\	24ee\LL	.
.	24ee\	.
.	24ee\JJ	.
8eJ 8c# 8A\	24dd\LL)	.
.	24dd\	.
.	24cc#\JJ	]]
=31	=31	=31
8D\L	24cc#\LL	.
.	24cc#\	.
.	24cc#\JJ	.
8d 8B 8F#\	24b\LL	.
.	24b\	.
.	24b\JJ	.
8f#J 8d 8B\	(24ff#\LL	.
.	24ff#\	.
.	24ff#\JJ	.
=32	=32	=32
8E\L	24ff#\LL	.
.	24ff#\	.
.	24ff#\JJ	.
8e 8B 8G#\	24ee\LL)	.
.	24ee\	.
.	24ee\JJ	.
8dJ 8B 8G#\	24b\LL	.
.	24b\	.
.	24cc#\JJ	.
!!LO:LB:g=original
=33	=33	=33
8AA\L	24a/LL	.
.	24a/	.
.	24a/JJ	.
8c# 8A 8E\	24a/LL	.
.	24a/	.
.	24a/JJ	.
8c#J 8A 8E\	8aa 8ee 8cc# 8a^<<^^\	.
=34	=34	=34
8AA\L	(>24a/LL	.
.	24a/	.
.	24a/JJ	.
8d 8A 8F#\	24dd\LL	<
.	24dd\	.
.	24dd\JJ	.
8f#J 8d 8A\	24ff#\LL	.
.	24ff#\	.
.	24ff#\JJ	.
=35	=35	=35
8AA\L	24aa\LL)	.
.	24aa\	.
.	24aa\JJ	.
8d 8A 8F#\	24aa\LL	.
.	24aa\	.
.	24aa\JJ	.
8f#J 8d 8A\	(>24gg#\LL	.
.	24gg#\	.
.	24aa\JJ	.
=36	=36	=36
8AA\L	24bb\LL)	.
.	24bb\	.
.	24bb\JJ	[
8d 8A 8F#\	24aa\LL	>
.	24aa\	.
.	24aa\JJ	.
8f#J 8d 8A\	24ff#\LL	.
.	24ff#\	.
.	24ff#\JJ	.
=37	=37	=37
8AA\L	(>24ee\LL	.
.	24ee\	.
.	24ee\JJ	]
8c# 8A 8E\	24ee\LL	.
.	24ee\	.
.	24ee\JJ	.
8eJ 8c# 8A\	24ee\LL	.
.	24ee\	.
.	24ee\JJ)	.
=38	=38	=38
8F#\L	24a/LL	<
.	24a/	.
.	24a/JJ	.
8c# 8A\	24a/LL	.
.	24a/	.
.	24a/JJ	.
8dJ 8B 8Fn\	24b\LL	.
.	24b\	.
.	24b\JJ	[[
!!LO:LB:g=original
=39	=39	=39
8E\L	(>24cc#\LL	.
.	24cc#\	.
.	24cc#\JJ	.
8e 8c# 8A\	24cc#\LL	.
.	24cc#\	.
.	24cc#\JJ	.
8eJ 8c# 8A\	24cc#\LL	.
.	24cc#\	.
.	24cc#\JJ	.
=40	=40	=40
8E\L	24cc#\LL)	>
.	24cc#\	.
.	24cc#\JJ	.
8e 8B 8G#\	24b\LL	.
.	24b\	.
.	24b\JJ	.
8dJ 8B 8G#\	24cc#\LL	.
.	24cc#\	.
.	24cc#\JJ	]]
=41	=41	=41
8AA\L	(<24a/LL	.
.	24a/	.
.	24a/JJ	.
8c# 8A 8E\	24a/LL	.
.	24a/	.
.	24a/JJ	.
8c#J 8A 8E\	24a/LL	.
.	24a/	.
.	24a/JJ)	.
=42	=42	=42
8AA\L	(>24a/LL	<
.	24a/	.
.	24a/JJ	.
8d 8A 8F#\	24dd\LL	.
.	24dd\	.
.	24dd\JJ	.
8f#J 8d 8A\	24ff#\LL	.
.	24ff#\	.
.	24ff#\JJ	.
=43	=43	=43
8AA\L	24aa\LL)	.
.	24aa\	.
.	24aa\JJ	.
8d 8A 8F#\	24aa\LL	.
.	24aa\	.
.	24aa\JJ	.
8f#J 8d 8A\	(>24gg#\LL	.
.	24gg#\	.
.	24aa\JJ	[[
=44	=44	=44
8AA\L	24bb\LL)	>
.	24bb\	.
.	24bb\JJ	.
8d 8A 8F#\	24aa\LL	.
.	24aa\	.
.	24aa\JJ	.
8f#J 8d 8A\	24ff#\LL	.
.	24ff#\	.
.	24ff#\JJ	]]
!!LO:PB:g=original
=45	=45	=45
8AA\L	(>24ee\LL	.
.	24ee\	.
.	24ee\JJ	.
8c# 8A 8E\	24ee\LL	.
.	24ee\	.
.	24ee\JJ	.
8c#J 8A 8E\	24ee\LL	.
.	24ee\	.
.	24ee\JJ)	.
=46	=46	=46
8F#\L	(>24a/LL	<
.	24a/	.
.	24a/JJ	.
8c# 8A\	24a/LL	.
.	24a/	.
.	24a/JJ	.
8dJ 8B 8Fn\	24b\LL	.
.	24b\	.
.	24b\JJ)	[[
=47	=47	=47
8E\L	24cc#\LL	>
.	24cc#\	.
.	24cc#\JJ	.
8e 8c# 8A\	24cc#\LL	.
.	24cc#\	.
.	24cc#\JJ	.
8eJ 8c# 8A\	24cc#\LL	.
.	24cc#\	.
.	24cc#\JJ	]]
=48	=48	=48
8E\L	(>24eee\LL	.
.	24ddd\	.
.	24bb\JJ	.
8d 8B 8G#\	24gg#\LL	.
.	24ee\	.
.	24dd\JJ	.
8dJ 8B 8G#\	24b/LL	.
.	24f#/	.
.	24g#/JJ)	.
=49	=49	=49
8AL 8AA\	(<24a/LL	>
.	24e/	.
.	24a/JJ)	.
8c# 8A 8E\	(>24cc#\LL	.
.	24a\	.
.	24cc#\JJ)	.
8eJ 8c# 8A\	(>24ee\LL	.
.	24cc#\	.
.	24ee\JJ)	.
*clefG2	*	*
=50	=50	=50
8aL 8e 8c#/	(>24aa\LL	.
.	24ee\	.
.	24aa\JJ)	.
8cc# 8a 8e/	(>24ccc#\LL	.
.	24aa\	.
.	24ccc#\JJ)	.
8eeJ 8cc# 8a/	(>24eee\LL	.
.	24ccc#\	.
.	24eee\JJ)	]]
!!LO:LB:g=original
=51	=51	=51
*	*8va	*
!	!LO:TX:b:i:t= :mod=marcato la melodia	!
4.aa 4.ee 4.cc#\	32aaa\LLL	pp
.	32aaaa\	.
!	!LO:TX:b:B:t=marcato la melodia:mod=	!
.	32aaa\	.
.	32aaaa\JJJ	.
.	32aaa\LLL	.
.	32aaaa\	.
.	32aaa\	.
.	32aaaa\JJJ	.
.	32aaa\LLL	.
.	32aaaa\	.
.	32aaa\	.
.	32aaaa\JJJ	.
=52	=52	=52
8fff#L 8ddd'\	32aaa\LLL	.
.	32aaaa\	.
.	32aaa\	.
.	32aaaa\JJJ	.
8aa'\J	32aaa\LLL	.
.	32aaaa\	.
.	32aaa\	.
.	32aaaa\JJJ	.
8r	32aaa\LLL	.
.	32aaaa\	.
.	32aaa\	.
.	32aaaa\JJJ	.
=53	=53	=53
8eeeL 8ccc#'\	32aaa\LLL	.
.	32aaaa\	.
.	32aaa\	.
.	32aaaa\JJJ	.
8aa'\J	32aaa\LLL	.
.	32aaaa\	.
.	32aaa\	.
.	32aaaa\JJJ	.
8r	32aaa\LLL	.
.	32aaaa\	.
.	32aaa\	.
.	32aaaa\JJJ	.
=54	=54	=54
8dddL 8aa'\	32fff#\LLL	.
.	32ffff#\	.
.	32fff#\	.
.	32ffff#\JJJ	.
8ddd 8aa'\	32fff#\LLL	.
.	32ffff#\	.
.	32fff#\	.
.	32ffff#\JJJ	.
8dddJ 8aa'\	32fff#\LLL	.
.	32ffff#\	.
.	32fff#\	.
.	32ffff#\JJJ	.
!!LO:LB:g=original
=55	=55	=55
8ccc#L 8aa'\	32eee\LLL	.
.	32eeee\	.
.	32eee\	.
.	32eeee\JJJ	.
8a'\J	32eee\LLL	.
.	32eeee\	.
.	32eee\	.
.	32eeee\JJJ	.
8r	32eee\LLL	.
.	32eeee\	.
.	32eee\	.
.	32eeee\JJJ	.
=56	=56	=56
8f#\L	32aa\LLL	<
.	32aaa\	.
.	32aa\	.
.	32aaa\JJJ	.
8cc# 8a\	32aa\LLL	.
.	32aaa\	.
.	32aa\	.
.	32aaa\JJJ	.
8ddJ 8b 8fn\	32bb\LLL	.
.	32bbb\	.
.	32bb\	.
.	32bbb\JJJ	.
=57	=57	=57
8e\L	32ccc#\LLL	.
.	32cccc#\	.
.	32ccc#\	.
.	32cccc#\JJJ	.
8ee 8cc# 8a\	32ccc#\LLL	.
.	32cccc#\	[[
.	32ccc#\	.
.	32cccc#\JJJ	.
8eeJ 8cc# 8a\	32ccc#\LLL	>
.	32cccc#\	.
.	32ccc#\	.
.	32cccc#\JJJ	.
=58	=58	=58
8e\L	32ccc#\LLL	.
.	32cccc#\	.
.	32ccc#\	.
.	32cccc#\JJJ	.
8ee 8b 8g#\	32ccc#\LLL	.
.	32cccc#\	.
.	32ccc#\	.
.	32cccc#\JJJ	.
8ddJ 8b 8g#\	32bb\LLL	.
.	32bbb\	.
.	32bb\	.
.	32bbb\JJJ	]]
*	*X8va	*
!!LO:LB:g=original
=59	=59	=59
8cc#L 8a'/	32aa\LLL	.
.	32aaa\	.
.	32aa\	.
.	32aaa\JJJ	.
8A'/J	32aa\LLL	.
.	32aaa\	.
.	32aa\	.
.	32aaa\JJJ	.
8r	32aa\LLL	.
.	32aaa\	.
.	32aa\	.
.	32aaa\JJJ	.
=60	=60	=60
8ff#L 8dd'\	32aa\LLL	pp
.	32aaa\	.
.	32aa\	.
.	32aaa\JJJ	.
8a'\J	32aa\LLL	.
.	32aaa\	.
.	32aa\	.
.	32aaa\JJJ	.
8r	32aa\LLL	.
.	32aaa\	.
.	32aa\	.
.	32aaa\JJJ	.
=61	=61	=61
8eeL 8cc#'\	32aa\LLL	.
.	32aaa\	.
.	32aa\	.
.	32aaa\JJJ	.
8a'\J	32aa\LLL	.
.	32aaa\	.
.	32aa\	.
.	32aaa\JJJ	.
8r	32aa\LLL	.
.	32aaa\	.
.	32aa\	.
.	32aaa\JJJ	.
=62	=62	=62
8ddL 8a'\	32ff#\LLL	.
.	32fff#\	.
.	32ff#\	.
.	32fff#\JJJ	.
8dd 8a'\	32ff#\LLL	.
.	32fff#\	.
.	32ff#\	.
.	32fff#\JJJ	.
8ddJ 8a\	32ff#\LLL	.
.	32fff#\	.
.	32ff#\	.
.	32fff#\JJJ	.
!!LO:LB:g=original
=63	=63	=63
8cc#L 8a'/	32ee\LLL	.
.	32eee\	.
.	32ee\	.
.	32eee\JJJ	.
8A'/J	32ee\LLL	.
.	32eee\	.
.	32ee\	.
.	32eee\JJJ	.
8r	32ee\LLL	.
.	32eee\	.
.	32ee\	.
.	32eee\JJJ	.
*clefF4	*	*
=64	=64	=64
8F#\L	32a\LLL	<
.	32aa\	.
.	32a\	.
.	32aa\JJJ	.
8c# 8A\	32a\LLL	.
.	32aa\	.
.	32a\	.
.	32aa\JJJ	.
8dJ 8B 8Fn\	32b\LLL	.
.	32bb\	.
.	32b\	.
.	32bb\JJJ	.
=65	=65	=65
8E\L	32cc#\LLL	.
.	32ccc#\	.
.	32cc#\	.
.	32ccc#\JJJ	.
8e 8c# 8A\	32cc#\LLL	.
.	32ccc#\	.
.	32cc#\	.
.	32ccc#\JJJ	.
8eJ 8c# 8A\	32cc#\LLL	.
.	32ccc#\	.
.	32cc#\	.
.	32ccc#\JJJ	[[
=66	=66	=66
8E\L	32cc#\LLL	>
.	32ccc#\	.
.	32cc#\	.
.	32ccc#\JJJ	.
8e 8B 8G#\	32cc#\LLL	.
.	32ccc#\	.
.	32cc#\	.
.	32ccc#\JJJ	.
8dJ 8B 8G#\	32b\LLL	.
.	32bb\	.
.	32b\	.
.	32bb\JJJ	.
!!LO:PB:g=original
=67	=67	=67
8AA\L	32a\LLL	.
.	32aa\	.
.	32a\	.
.	32aa\JJJ	.
8c# 8A 8E\	32a\LLL	.
.	32aa\	.
.	32a\	.
.	32aa\JJJ	.
8c#J 8A 8E\	32a\LLL	.
.	32aa\	.
.	32a\	.
.	32aa\JJJ	]]
=68	=68	=68
[>4cn [>4A [<4Fn\	32a\LLL	<
.	32aa\	.
.	32a\	.
.	32aa\JJJ	.
.	32fn\LLL	.
!LO:MO:mod=!LO&colon;TX&colon;a&colon;i&colon;t=poco a poco rit.	!	!
!LO:TX:a:B:t=poco a poco ritard.	!	!
.	32ffn\	.
.	32f\	.
.	32ff\JJJ	.
8c] 8A] 8F\]	32gn\LLL	.
.	32ggn\	.
.	32g\	.
.	32gg\JJJ	[[
=69	=69	=69
8AA\L	32a\LLL	>
.	32aa\	.
.	32a\	.
.	32aa\JJJ	.
8c#X 8A 8E\	32a\LLL	.
.	32aa\	.
.	32a\	.
.	32aa\JJJ	.
8c#J 8A 8E\	32a\LLL	.
.	32aa\	.
.	32a\	.
.	32aa\JJJ	]]
=70	=70	=70
[>4cn [>4A [<4Fn\	32a\LLL	<
.	32aa\	.
.	32a\	.
.	32aa\JJJ	.
.	32fn\LLL	.
.	32ffn\	.
.	32f\	.
.	32ff\JJJ	.
8c] 8A] 8F\]	32gn\LLL	.
.	32ggn\	.
.	32g\	.
.	32gg\JJJ	[[
!!LO:LB:g=original
=71||	=71||	=71||
!!!OMD: Andante. Tempo I.
!!!OMD-mod: Andante. Tempo I
*k[]	*k[]	*
*M9/8	*M9/8	*
*a:	*a:	*
8AA\L	4.aa 4.a\	>
8c 8A 8E\	.	.
8eJ 8c 8A\	.	] p
8.a>L 8.e> 8.c>\	4.rgg	.
16r	.	.
8eJ 8c 8A\	.	.
8.a>L 8.e> 8.c>\	4.rgg	.
16r	.	.
8eJ 8c 8A\	.	.
=72	=72	=72
8AA\L	(<8e/L	.
8c 8A 8E\	8a/	.
8eJ 8c 8A\	8b/J)	.
8.a>L 8.e> 8.c>\	4.ccTT/	<
16r	.	.
8eJ 8c 8A\	.	.
.	.	[
.	(<32qqb/LLL	.
.	32qqcc/JJJ)	.
8.a>L 8.f> 8.d>\	(>8dd/L	>
.	8ee/	.
16r	.	.
8fJ 8d 8A\	8ff/J)	.
=73	=73	=73
8AA\L	[>4.ee\	.
8c 8A 8E\	.	.
8eJ 8c 8A\	.	]
8.a>L 8.e> 8.c>\	(>8ee/L]	<
.	8a/	.
16r	.	.
8eJ 8c 8A\	8b/J)	.
*	*tuplet	*
!	!LO:TUP:b:problem=klamra łukowa	!
8.a>L 8.e> 8.c>\	(>24cc/LL	[ >
.	24dd/	.
.	24cc/J	.
.	8b/	.
16r	.	.
8eJ 8c 8A\	8a/J)	]]
=74	=74	=74
.	(<32qqe/LLL	.
.	32qqa/	.
.	32qqcc/JJJ)	.
8EE\L	[>4.ee^\	.
8c 8A 8E\	.	.
8eJ 8c 8A\	.	.
8.a>L 8.e> 8.c>\	8ee/L]	.
.	.	>
.	8a/	.
16r	.	.
8eJ 8c 8A\	8b/J	.
!	!LO:SIC:s=(24ccLL	!
!	!LO:TUP:a:problem=klamra łukowa	!
8.EE\L	(>(<24cc\LL	.
.	24dd\	.
.	24cc\J	.
.	8b\	.
16r	.	.
!	!LO:SIC:s=8eJ)	!
8dJ 8B 8G#X 8E\	8e\J))	]]
=75	=75	=75
8.AA^>\L	8a\L	.
.	(>8bb 8ff 8dd^>\	.
16r	.	.
8A\J	8aaJ 8ee\)	.
8.AA^>\L	(>8ffL 8b 8g#X^>\	.
.	8ee 8cc 8a\)	.
16r	.	.
8A\J	(>8ddJ 8b 8f^>\	.
8.AA^>\L	8ccL 8a\)	.
.	(>8b 8f 8d^>\	.
16r	.	.
8A\J	8aJ 8e\)	.
!!LO:LB:g=original
=76	=76	=76
!	!	!LO:DY:rj
8AAL 8AAA\	(<8e/L	p <
8c 8A 8E\	8a/	.
8eJ 8c 8A\	8b/J)	.
8.a>L 8.e> 8.c>\	4.ccT/	.
16r	.	.
8eJ 8c 8A\	.	[
.	(<16qqb/LL	.
.	16qqcc/JJ)	.
8.a>L 8.f> 8.d>\	(>8dd/L	.
.	.	>
.	8ee/	.
16r	.	.
8fJ 8d 8A\	8ff/J)	.
=77	=77	=77
8AA\L	4ee\	.
8c 8A 8E\	.	]
*	*8va	*
8eJ 8c 8A\	(>32aaa\LLL	.
.	32bbb\J	.
.	16cccc\JJ)	.
!LO:SIC:s=8.aL 8.e 8.c	!LO:TX:t=P:problem=mixed beam	!
8.a>L 8.e> 8.c>\	(>32cccc\LLL	.
.	32dddd\J	<
.	16eeee\J)	.
*	*X8va	*
.	(8a/	.
16r	.	.
8eJ 8c 8A\	8b/J)	[
!LO:SIC:s=8.aL 8.e 8.c	!LO:TUP:a:problem=klamra łukowa	!
8.a>L 8.e> 8.c>\	(>24cc/LL	>
.	24dd/	.
.	24cc/J	.
.	8b/	.
16r	.	.
8eJ 8c 8A\	8a/J)	]]
=78	=78	=78
.	(<32qqe/LLL	.
.	32qqa/	.
.	32qqcc/JJJ)	.
8EE\L	4ee^<\	.
8c 8A 8E\	.	.
*	*8va	*
8eJ 8c 8A\	(>32aaa\LLL	.
.	32bbb\J	.
.	16cccc\JJ)	.
!	!LO:TX:t=P:problem=mixed beam	!
8.a>L 8.e> 8.c>\	(>32cccc\LLL	.
.	32dddd\J	.
.	16eeee\J)	.
*	*X8va	*
.	(8a/	>
16r	.	.
8eJ 8c 8A\	8b/J)	.
!LO:MO:mod=!null:null	!	!
!LO:N:vis=8	!LO:TUP:a:problem=klamra łukowa	!
8.EE\L	(<24cc/LL	.
.	24dd/	.
.	24cc/J	.
.	8b/	.
16r	.	.
8dJ 8B 8G#X 8E\	8e/J)	]]
=79	=79	=79
8AA\L	4a^<\	.
8c 8A 8E\	.	.
*	*8va	*
8eJ 8c 8A\	(>32eeee\LLL	.
.	32dddd\J	.
.	16cccc\JJ)	.
!	!LO:TX:t=P:problem=mixed beam	!
8.a>L 8.e> 8.c>\	(>32cccc\LLL	.
.	32bbb\J	.
.	16aaa\J)	.
*	*X8va	*
.	(8a/	.
16r	.	.
8eJ 8c 8A\	8b/J)	.
!	!LO:TUP:a:problem=klamra łukowa	!
8.a>L 8.e> 8.c>\	(>24cc/LL	.
.	24dd/	.
.	24cc/J	.
.	8b/	.
16r	.	.
8eJ 8c 8A\	8a/J)	.
!!LO:LB:g=original
=80	=80	=80
8D\L	4dd^<\	.
8d 8A 8F\	.	.
*	*8va	*
8fJ 8d 8A\	(>32bbb\LLL	.
.	32cccc\J	.
.	16dddd\JJ)	.
!	!LO:TX:t=P:problem=mixed beam	!
8.a>L 8.f> 8.d>\	(>32dddd\LLL	<
.	32eeee\J	.
.	16ffff\J)	.
*	*X8va	*
.	(8a/	.
16r	.	.
8fJ 8d 8A\	8b/J)	[
!	!LO:TUP:a:problem=klamra łukowa	!
8.a>L 8.f> 8.d>\	(>24cc/LL	.
.	.	>
.	24dd/	.
.	24cc/J	.
.	8b/	.
16r	.	.
8fJ 8d 8A\	8a/J)	]]
=81	=81	=81
8AA\L	4cc^<\	.
8c 8A 8E\	.	.
*	*8va	*
8eJ 8c 8A\	(32aaa\LLL	.
.	32bbb\J	.
.	16cccc\JJ)	.
!	!LO:TX:t=P:problem=mixed beam	!
8.a>L 8.e> 8.c>\	(32cccc\LLL	<
.	32dddd\J	.
.	16eeee\J)	.
*	*X8va	*
.	(8a/	.
16r	.	.
8eJ 8c 8A\	8b/J)	[
!	!LO:TUP:a:problem=klamra łukowa	!
8.a>L 8.e> 8.c>\	(>24cc/LL	.
.	.	>
.	24dd/	.
.	24cc/J	.
.	8b/	.
16r	.	.
8eJ 8c 8A\	8a/J)	.
=82	=82	=82
.	(<32qqe/LLL	.
.	32qqa/	.
.	32qqcc/JJJ	.
8EE\L	4ee\)	] mf
8c 8A 8E\	.	.
*	*8va	*
8eJ 8c 8A\	(32aaa\LLL	.
.	32bbb\J	.
.	16cccc\JJ)	.
!	!LO:TX:t=P:problem=mixed beam	!
8.a>L 8.e> 8.c>\	(32cccc\LLL	>
.	32dddd\J	.
.	16eeee\J)	.
*	*X8va	*
.	(8a/	.
16r	.	.
8eJ 8c 8A\	8b/J)	.
!LO:MO:mod=!null:null	!	!
!LO:N:vis=8	!LO:TUP:a:problem=klamra łukowa	!
8.EE\L	(>24cc/LL	.
.	24dd/	.
.	24cc/J	.
.	8b/	.
16r	.	.
8dJ 8B 8G#X 8E\	8e/J)	]]
!!LO:LB:g=original
=83	=83	=83
*	*	*^
*	*	*	*^
.	(8qa/	.	.	.
!	!	!LO:HP:a=2	!LO:DY:b=2	!LO:DY:b=1
8AA\L	[2.aaT\)	>	pp	pp
*clefG2	*	*	*	*
(>8ff 8b 8g#X\	.	.	.	.
8eeJ 8cc 8a\)	.	.	.	.
(>8ddL 8b 8f\	.	.	.	.
8cc 8a 8e\)	.	]	.	.
(>8bJ 8f 8d\	.	.	.	.
[>4.a [>4.e [<4.c [<4.A/)	8aa\L]	<	.	.
.	(8a\	.	.	.
.	8b\J)	.	.	.
*	*	*	*v	*v
=84	=84	=84	=84
!	!LO:TUP:a:problem=klamra łukowa	!	!LO:MO:mod=!null:null
!	!LO:TX:b:t=di_mi_nu_en_do:problem=dynamics with extention lines:mod=	!	!LO:HP:t=di_mi_nu_en_do
!	!	!	!LO:MO:mod=.
4.a] 4.e_ 4.c_ 4.A/_	(24cc\LL	.	>
.	24dd\	.	.
.	24cc\J	.	.
.	8b\	.	.
.	8a\J)	[	.
8e]L 8c] 8A\]	[2.aT/	>	.
*clefF4	*	*	*
(>8f 8B 8G#X\	.	.	.
8eJ 8c 8A\)	.	.	.
(>8dL 8B 8F\	.	.	.
8c 8A 8E\)	.	.	.
(>8BJ 8F 8D\	.	.	.
=85	=85	=85	=85
!	!LO:TX:t=P:problem=mixed beam	!	!
4.A 4.E 4.C 4.AA\)	8a\L]	]	.
!	!	!	!LO:MO:mod=.
.	(<8A</	.	]
.	8B</J)	.	.
!	!LO:TUP:a:problem=klamra łukowa	!	!
4r	(>24c</LL	.	.
.	24d</	.	.
.	24c</J	.	.
.	8B</	.	.
8r	8A</J)	.	.
4.D 4.DD\	4.f< 4.B< 4.F</	.	.
*	*	*v	*v
=86	=86	=86
!	!	!LO:MO:mod=!LO&colon;DY&colon;t=ppp e morendo
!	!	!null
4.E 4.EE\	4.e< 4.c< 4.A</	ppp
4.E 4.EE\	4.g#X 4.e< 4.d< 4.B<t/	.
!	!LO:TX:b:t=e morendo:dur=12e:mod=	!
.	(<16qqf#X/LL	.
.	16qqg#/JJ)	.
4.AA 4.AAA\	[4.a [4.e< [4.c< [4.A</	.
=87	=87	=87
8FL 8FF\	4.a] 4.e<] 4.c<] 4.A</]	.
.	.	>
8E 8EE\	.	.
8CJ 8CC\	.	.
4.AA 4.AAA\	4.A< 4.E< 4.C</	.
4.AA 4.AAA\	4.A< 4.E< 4.C</	.
=88	=88	=88
2.AA 2.AAA\	2.A< 2.E< 2.C<;/	.
4r	4ryy	]
8r	8ryy	.
==	==	==
*-	*-	*-
!!!system-decoration: {(*)}
!!!RDF**kern: > = above
!!!RDF**kern: < = below
!!!filter-modern: shed -k -e "s/([^a-gA-Gn#X-])[<>]/$1/g" | shed -e "s/^(X?)tuplet$/$1TUPLET/I" | shed -e "s/:rj/:RJ/L" | shed -k -e "s/:TUP:/:tup:/L" | shed -e "s/TX(.*):t=P:/tx$1:t=P:/LG" | sic -sq | modori -m
!!!ENC: Andrzej Kubiczek
!!!END: 2022-02-07
!!!ENC: Andrzej Kubiczek
!!!END: 2022-02-12
!!!ENC-modern: Andrzej Kubiczek
!!!END-modern: 2022-07-27
